X:1
T:Title
%%score { ( 1 3 ) | ( 2 4 ) }
L:1/8
M:3/4
K:Ab
V:1 treble nm="Grand Piano"
V:3 treble 
V:2 bass 
V:4 bass 
V:1
 z2 z2[Q:1/4=112] [CE]2 | [CE]4 [CE]2 | [DF]4 [CE]2 | [CEA]4 [CA]B | c4 c2 | c2 B2 z F | %6
[M:2/4] [Ge]4 |[M:1/4] cd |[M:3/4] e4 c2 | A4 E2 | F4 F2 | [FA]4 F2 | E4 A2 | A4 B2 | %14
[M:2/4] [CEA]4 |] %15
V:2
 z2 z2 [A,,A,]2 | [A,,A,]4 [A,,A,]2 | [A,,A,]4 [A,,A,]2 | z2 z2[K:treble] A,2 | [A,EA]4 [A,EA]2 | %5
 [EA]2 [DE]2[K:bass] .[A,CE]2 |[M:2/4] [E,B,]4 |[M:1/4] [A,E]2 |[M:3/4][K:treble] [A,CA]4 [A,EA]2 | %9
 [A,CE]4 [C,A,]2 | [D,A,D]4 [D,A,D]2 | [D,A,]4 [D,A,D]2 | [E,A,C]4 [E,CE]2 | [E,CE]4 [E,DE]2 | %14
[M:2/4] A,,4 |] %15
V:3
 x6 | x6 | x6 | z2 z2 E2 | x6 | z2 z2 A2 |[M:2/4] x4 |[M:1/4] x2 |[M:3/4] x6 | x6 | x6 | x6 | x6 | %13
 x6 |[M:2/4] x4 |] %15
V:4
 x6 | x6 | x6 | A,,4[K:treble] z D | x6 | A,4[K:bass] z2 |[M:2/4] x4 |[M:1/4] z B, | %8
[M:3/4][K:treble] x6 | x6 | x6 | x6 | x6 | x6 |[M:2/4] x4 |] %15

